img/menu-icon.svg

<svg preserveAspectRatio="none" width="100%" height="100%" overflow="visible" style="display: block;" viewBox="0 0 40 40" fill="none" xmlns="http://www.w3.org/2000/svg">
<g id="material-symbols:menu-rounded">
<path id="Vector" d="M6.66667 30C6.19444 30 5.79889 29.84 5.48 29.52C5.16111 29.2 5.00111 28.8044 5 28.3333C4.99889 27.8622 5.15889 27.4667 5.48 27.1467C5.80111 26.8267 6.19667 26.6667 6.66667 26.6667H33.3333C33.8056 26.6667 34.2017 26.8267 34.5217 27.1467C34.8417 27.4667 35.0011 27.8622 35 28.3333C34.9989 28.8044 34.8389 29.2006 34.52 29.5217C34.2011 29.8428 33.8056 30.0022 33.3333 30H6.66667ZM6.66667 21.6667C6.19444 21.6667 5.79889 21.5067 5.48 21.1867C5.16111 20.8667 5.00111 20.4711 5 20C4.99889 19.5289 5.15889 19.1333 5.48 18.8133C5.80111 18.4933 6.19667 18.3333 6.66667 18.3333H33.3333C33.8056 18.3333 34.2017 18.4933 34.5217 18.8133C34.8417 19.1333 35.0011 19.5289 35 20C34.9989 20.4711 34.8389 20.8672 34.52 21.1883C34.2011 21.5094 33.8056 21.6689 33.3333 21.6667H6.66667ZM6.66667 13.3333C6.19444 13.3333 5.79889 13.1733 5.48 12.8533C5.16111 12.5333 5.00111 12.1378 5 11.6667C4.99889 11.1956 5.15889 10.8 5.48 10.48C5.80111 10.16 6.19667 10 6.66667 10H33.3333C33.8056 10 34.2017 10.16 34.5217 10.48C34.8417 10.8 35.0011 11.1956 35 11.6667C34.9989 12.1378 34.8389 12.5339 34.52 12.855C34.2011 13.1761 33.8056 13.3356 33.3333 13.3333H6.66667Z" fill="var(--fill-0, #FFE000)"/>
</g>
</svg>

<svg xmlns="http://www.w3.org/2000/svg" fill="none" overflow="visible" preserveAspectRatio="none" style="display:block" viewBox="0 0 40 40"><path fill="var(--fill-0, #ffe000)" d="M6.667 30q-.709 0-1.187-.48A1.62 1.62 0 0 1 5 28.333a1.6 1.6 0 0 1 .48-1.186q.482-.48 1.187-.48h26.666q.71 0 1.189.48T35 28.333a1.63 1.63 0 0 1-.48 1.189q-.478.48-1.187.478zm0-8.333q-.709 0-1.187-.48A1.62 1.62 0 0 1 5 20a1.6 1.6 0 0 1 .48-1.187q.482-.48 1.187-.48h26.666q.71 0 1.189.48T35 20a1.63 1.63 0 0 1-.48 1.188q-.478.481-1.187.479zm0-8.334q-.709 0-1.187-.48A1.62 1.62 0 0 1 5 11.667a1.6 1.6 0 0 1 .48-1.187Q5.962 10 6.667 10h26.666q.71 0 1.189.48T35 11.667a1.63 1.63 0 0 1-.48 1.188q-.478.481-1.187.478z"/></svg>
